packages/foundations/assets/icons/functional/images/social/share_12.svg

<svg width="12" height="12" viewBox="0 0 12 12" fill="none" xmlns="http://www.w3.org/2000/svg">
<g clip-path="url(#clip0_232_449)">
<path fill-rule="evenodd" clip-rule="evenodd" d="M8.70344 1.20001C9.86823 1.20001 10.8 2.13304 10.8 3.29925C10.8 4.45319 9.86823 5.39848 8.70344 5.39848C8.07817 5.39848 7.51422 5.11611 7.13414 4.67416L5.34408 5.53353C5.38084 5.68085 5.39309 5.84043 5.39309 6.00001C5.39309 6.1596 5.38084 6.31918 5.34408 6.46649L7.12183 7.31353C7.51422 6.88391 8.07817 6.60155 8.70344 6.60155C9.85598 6.60155 10.8 7.54684 10.8 8.70078C10.8 9.86698 9.85598 10.8 8.70344 10.8C7.53872 10.8 6.60694 9.86698 6.60694 8.70078C6.60694 8.60259 6.61919 8.49207 6.63144 8.40615L4.74331 7.52224C4.37549 7.87827 3.86054 8.09925 3.29658 8.09925C2.14404 8.09925 1.20001 7.15395 1.20001 6.00001C1.20001 4.83381 2.14404 3.90078 3.29658 3.90078C3.86054 3.90078 4.37549 4.12175 4.75557 4.47778L6.63144 3.58161C6.61919 3.49569 6.60694 3.39744 6.60694 3.29925C6.60694 2.13304 7.55097 1.20001 8.70344 1.20001ZM8.70344 7.80461C8.21305 7.80461 7.80848 8.2097 7.80848 8.70078C7.80848 9.19179 8.21305 9.59695 8.70344 9.59695C9.1939 9.59695 9.59847 9.19179 9.59847 8.70078C9.59847 8.2097 9.1939 7.80461 8.70344 7.80461ZM3.29658 5.10385C2.80613 5.10385 2.40155 5.49667 2.40155 6.00001C2.40155 6.49109 2.80613 6.89618 3.29658 6.89618C3.79922 6.89618 4.20386 6.49109 4.20386 6.00001C4.20386 5.49667 3.79922 5.10385 3.29658 5.10385ZM8.70344 2.39081C8.21305 2.39081 7.80848 2.7959 7.80848 3.29925C7.80848 3.79032 8.21305 4.19541 8.70344 4.19541C9.20615 4.19541 9.61072 3.79032 9.61072 3.29925C9.61072 2.7959 9.20615 2.39081 8.70344 2.39081Z" fill="#1A1C1F"/>
</g>
<defs>
<clipPath id="clip0_232_449">
<rect width="12" height="12" fill="white"/>
</clipPath>
</defs>
</svg>

<svg xmlns="http://www.w3.org/2000/svg" width="12" height="12" fill="none"><g clip-path="url(#a)"><path fill="#1A1C1F" fill-rule="evenodd" d="M8.703 1.2A2.09 2.09 0 0 1 10.8 3.3c0 1.153-.932 2.098-2.097 2.098a2.07 2.07 0 0 1-1.569-.724l-1.79.86c.037.147.05.306.05.466s-.013.32-.05.466l1.778.848c.392-.43.956-.712 1.581-.712 1.153 0 2.097.945 2.097 2.099 0 1.166-.944 2.099-2.097 2.099a2.09 2.09 0 0 1-2.072-2.394l-1.888-.884a2.08 2.08 0 0 1-1.446.577A2.105 2.105 0 0 1 1.2 6c0-1.166.944-2.1 2.097-2.1.564 0 1.078.222 1.459.578l1.875-.896a2 2 0 0 1-.024-.283c0-1.166.944-2.099 2.096-2.099m0 6.605a.9.9 0 0 0-.895.896.9.9 0 0 0 .895.896.9.9 0 0 0 .895-.896.9.9 0 0 0-.895-.896M3.297 5.104A.893.893 0 0 0 2.402 6a.9.9 0 0 0 1.802 0 .895.895 0 0 0-.907-.896M8.703 2.39a.903.903 0 0 0 0 1.804.903.903 0 1 0 0-1.804" clip-rule="evenodd"/></g><defs><clipPath id="a"><path fill="#fff" d="M0 0h12v12H0z"/></clipPath></defs></svg>
